mimetypes/symbolic/text-x-generic-symbolic.svg

<svg height="16" viewBox="0 0 16 16" width="16" xmlns="http://www.w3.org/2000/svg"><path d="m5.3 11.3a3.3 3.3 0 0 1 -3.3-3.3 3.3 3.3 0 0 1 3.3-3.3h6.3a2.4 2.4 0 0 1 2.4 2.4 2.4 2.4 0 0 1 -2.4 2.4h-5.1a1.5 1.5 0 0 1 -1.5-1.5 1.5 1.5 0 0 1 1.5-1.5h4.5v.9h-4.5a.6.6 0 0 0 -.6.6.6.6 0 0 0  .6.6h5.1a1.5 1.5 0 0 0 1.5-1.5 1.5 1.5 0 0 0 -1.5-1.5h-6.3a2.4 2.4 0 0 0 -2.4 2.4 2.4 2.4 0 0 0 2.4 2.4h5.7v.9z" fill="#bebebe"/></svg>

<?xml version="1.0" encoding="UTF-8" standalone="no"?>
<svg
   xmlns:dc="http://purl.org/dc/elements/1.1/"
   xmlns:cc="http://creativecommons.org/ns#"
   xmlns:rdf="http://www.w3.org/1999/02/22-rdf-syntax-ns#"
   xmlns:svg="http://www.w3.org/2000/svg"
   xmlns="http://www.w3.org/2000/svg"
   xmlns:sodipodi="http://sodipodi.sourceforge.net/DTD/sodipodi-0.dtd"
   xmlns:inkscape="http://www.inkscape.org/namespaces/inkscape"
   version="1.1"
   width="16"
   height="16"
   viewBox="0 0 16 16"
   id="svg2"
   inkscape:version="0.91 r13725"
   sodipodi:docname="text-x-generic-symbolic.svg">
  <metadata
     id="metadata10">
    <rdf:RDF>
      <cc:Work
         rdf:about="">
        <dc:format>image/svg+xml</dc:format>
        <dc:type
           rdf:resource="http://purl.org/dc/dcmitype/StillImage" />
        <dc:title></dc:title>
      </cc:Work>
    </rdf:RDF>
  </metadata>
  <defs
     id="defs8" />
  <sodipodi:namedview
     pagecolor="#ffffff"
     bordercolor="#666666"
     borderopacity="1"
     objecttolerance="10"
     gridtolerance="10"
     guidetolerance="10"
     inkscape:pageopacity="0"
     inkscape:pageshadow="2"
     inkscape:window-width="640"
     inkscape:window-height="480"
     id="namedview6"
     showgrid="false"
     inkscape:zoom="26.458333"
     inkscape:cx="-1.4551182"
     inkscape:cy="12"
     inkscape:current-layer="svg2" />
  <path
     d="M 5.3,11.3 A 3.3,3.3 0 0 1 2,8 3.3,3.3 0 0 1 5.3,4.7 l 6.3,0 A 2.4,2.4 0 0 1 14,7.1 2.4,2.4 0 0 1 11.6,9.5 l -5.1,0 A 1.5,1.5 0 0 1 5,8 1.5,1.5 0 0 1 6.5,6.5 l 4.5,0 0,0.9 -4.5,0 A 0.6,0.6 0 0 0 5.9,8 0.6,0.6 0 0 0 6.5,8.6 l 5.1,0 A 1.5,1.5 0 0 0 13.1,7.1 1.5,1.5 0 0 0 11.6,5.6 l -6.3,0 A 2.4,2.4 0 0 0 2.9,8 2.4,2.4 0 0 0 5.3,10.4 l 5.7,0 0,0.9 -5.7,0 z"
     id="path4"
     style="fill:#bebebe;fill-opacity:1"
     inkscape:connector-curvature="0" />
</svg>
